icon/pk/people-left.svg

<svg viewBox="0 0 48 48" fill="none" xmlns="http://www.w3.org/2000/svg" height="1em" width="1em">
  <path d="M19 20C22.866 20 26 16.866 26 13C26 9.13401 22.866 6 19 6C15.134 6 12 9.13401 12 13C12 16.866 15.134 20 19 20Z" fill="#2F88FF" stroke="black" stroke-width="4" stroke-linecap="round" stroke-linejoin="round"/>
  <path d="M44 11L38 17L44 23" stroke="black" stroke-width="4" stroke-linecap="round" stroke-linejoin="round"/>
  <path d="M4 40.8V42H34V40.8C34 36.3196 34 34.0794 33.1281 32.3681C32.3611 30.8628 31.1372 29.6389 29.6319 28.8719C27.9206 28 25.6804 28 21.2 28H16.8C12.3196 28 10.0794 28 8.36808 28.8719C6.86278 29.6389 5.63893 30.8628 4.87195 32.3681C4 34.0794 4 36.3196 4 40.8Z" fill="#2F88FF" stroke="black" stroke-width="4" stroke-linecap="round" stroke-linejoin="round"/>
</svg>

<svg width="48" height="48" fill="none" xmlns="http://www.w3.org/2000/svg"><path d="M19 20a7 7 0 1 0 0-14 7 7 0 0 0 0 14Z" fill="#2F88FF" stroke="#000" stroke-width="4" stroke-linecap="round" stroke-linejoin="round"/><path d="m44 11-6 6 6 6" stroke="#000" stroke-width="4" stroke-linecap="round" stroke-linejoin="round"/><path d="M4 40.8V42h30v-1.2c0-4.48 0-6.72-.872-8.432a8 8 0 0 0-3.496-3.496C27.92 28 25.68 28 21.2 28h-4.4c-4.48 0-6.72 0-8.432.872a8 8 0 0 0-3.496 3.496C4 34.08 4 36.32 4 40.8Z" fill="#2F88FF" stroke="#000" stroke-width="4" stroke-linecap="round" stroke-linejoin="round"/></svg>
